!!!OTL: Caihua
!!!ARE: Asia, China,ÿYunnan, Jianshui
!! II, 63
!!!SCT: C1489
!!!YEM: Copyright 1995, estate of Helmut Schaffrath.
**kern
*ICvox
*Ivox
!! Mixed meters:  2/4; 3/4
*M2/4
*k[f#]
*G:
{8ee
8b
8b
8dd
=1
8ee
8dd
[4ee
=2
4.ee]
[8dd
=3
8dd]
8b
8r}
{8ee
=4
4a
8dd
8ee
=5
4cc
8b
8g
=6
16b
16a
8b
[4a
=7
4a]
8r}
{8b
=8
*M3/4
8e
8g
4a
8r
8dd
=9
*M2/4
8ee
8dd
8cc
8b
=10
4a
8r}
{8b
=11
8g
8a
8dd
8b
=12
16a
16b
4g
8f#
=13
16e
16d
4.e}
=14
{8ee
8dd
8b
8dd
=15
8ee
8ff#
[4ee
=16
2ee_
=17
4.ee]
16ff#
16ee}
=18
{8dd
16ee
16dd
8cc
8b
=19
16a
16b
4g
8e
=20
16a
16b
4a}
{8b
=21
*M3/4
4g
4a
8r
8dd
=22
*M2/4
4cc
8b
8dd
=23
4a
8r}
{8b
=24
8g
8a
8dd
8b
=25
16a
16b
4g
8f#
=26
16e
16d
4.e}
==
!!!AGN: Wuge, Huadeng
!!!AMT: irregular
!!!AIN: vox
!!!EED: Helmut Schaffrath
!!!EEV: 1.0
*-
!!!ONB: Tied note syntax fixed by Craig Sapp, 2004/05/03/
